brandFactory_export/1.Light/Documento encriptado_1Light.svg

<?xml version="1.0" encoding="UTF-8"?>
<svg width="24px" height="24px" viewBox="0 0 24 24" version="1.1" xmlns="http://www.w3.org/2000/svg" xmlns:xlink="http://www.w3.org/1999/xlink">
    <title>1.Light/Documento encriptado_1Light</title>
    <g id="Symbols" stroke="none" stroke-width="1" fill="none" fill-rule="evenodd">
        <g id="1.Light/Documento-encriptado_1Light" fill="#5CB615" fill-rule="nonzero">
            <path d="M13.4638655,-2.66453526e-13 C13.6789916,-2.66453526e-13 13.8907563,0.087394958 14.0420168,0.238655462 L20.4689076,6.51764706 C20.5731092,6.62184874 20.6369748,6.75966387 20.6739496,6.90756303 C20.7008403,6.96806723 20.7142857,7.03529412 20.7142857,7.10252101 L20.7142857,22.1781513 C20.7142857,22.9613445 20.0453782,23.6235294 19.2521008,23.6235294 L4.46218487,23.6235294 C3.68235294,23.6235294 3,22.9478992 3,22.1781513 L3,1.44537815 C3,0.68907563 3.69915966,-2.66453526e-13 4.46218487,-2.66453526e-13 L13.4638655,-2.66453526e-13 Z M12.6403361,0.991596639 L4.45882353,0.991596639 C4.23697479,0.991596639 3.97815126,1.23697479 3.97815126,1.44537815 L3.97815126,22.1781513 C3.97815126,22.4033613 4.22016807,22.6319328 4.45882353,22.6319328 L19.2487395,22.6319328 C19.497479,22.6319328 19.7294118,22.410084 19.7294118,22.1781513 L19.7294118,7.91932773 L16.6773109,7.91932773 C15.5109244,7.91932773 14.5058824,7.5394958 13.7731092,6.82016807 C13.0336134,6.09747899 12.6403361,5.10588235 12.6403361,3.95966387 L12.6403361,0.991596639 Z M13.8168067,16.5781513 C14.912605,16.5781513 15.3294118,17.2806723 15.3294118,18.6319328 C15.3294118,19.9831933 14.912605,20.6789916 13.8168067,20.6789916 C12.7210084,20.6789916 12.3042017,19.9798319 12.3042017,18.6319328 C12.3042017,17.2840336 12.7210084,16.5781513 13.8168067,16.5781513 Z M17.2386555,16.6554622 C17.6420168,16.6554622 17.7798319,16.7529412 17.7798319,17.0420168 L17.7798319,20.0268908 L18.3378151,20.0268908 L18.3378151,20.605042 L16.3042017,20.605042 L16.3042017,20.0235294 L16.9663866,20.0235294 L16.9663866,17.2739496 L16.3344538,17.2739496 L16.3344538,16.7226891 C16.5663866,16.6890756 16.9596639,16.6554622 17.2386555,16.6554622 Z M9.91428571,16.6554622 C10.3176471,16.6554622 10.4554622,16.7529412 10.4554622,17.0420168 L10.4554622,20.0268908 L11.0134454,20.0268908 L11.0134454,20.605042 L8.97983193,20.605042 L8.97983193,20.0235294 L9.64201681,20.0235294 L9.64201681,17.2739496 L9.01008403,17.2739496 L9.01008403,16.7226891 C9.24201681,16.6890756 9.63529412,16.6554622 9.91428571,16.6554622 Z M6.26722689,16.6554622 C6.67058824,16.6554622 6.80840336,16.7529412 6.80840336,17.0420168 L6.80840336,20.0268908 L7.36638655,20.0268908 L7.36638655,20.605042 L5.33277311,20.605042 L5.33277311,20.0235294 L5.99495798,20.0235294 L5.99495798,17.2739496 L5.36302521,17.2739496 L5.36302521,16.7226891 C5.59495798,16.6890756 5.98823529,16.6554622 6.26722689,16.6554622 Z M13.8134454,17.1831933 C13.3462185,17.1831933 13.1613445,17.5394958 13.1613445,18.6319328 C13.1613445,19.7243697 13.3462185,20.0168067 13.8134454,20.0168067 C14.2840336,20.0168067 14.4655462,19.7210084 14.4655462,18.6319328 C14.4655462,17.5428571 14.2806723,17.1831933 13.8134454,17.1831933 Z M9.91764706,10.4201681 C11.0134454,10.4201681 11.4302521,11.1226891 11.4302521,12.4739496 C11.4302521,13.8252101 11.0134454,14.5210084 9.91764706,14.5210084 C8.82184874,14.5210084 8.40504202,13.8218487 8.40504202,12.4739496 C8.40504202,11.1260504 8.82184874,10.4201681 9.91764706,10.4201681 Z M13.8168067,10.4201681 C14.912605,10.4201681 15.3294118,11.1226891 15.3294118,12.4739496 C15.3294118,13.8252101 14.912605,14.5210084 13.8168067,14.5210084 C12.7210084,14.5210084 12.3042017,13.8218487 12.3042017,12.4739496 C12.3042017,11.1260504 12.7210084,10.4201681 13.8168067,10.4201681 Z M6.1697479,10.5109244 C6.57310924,10.5109244 6.71092437,10.6084034 6.71092437,10.897479 L6.71092437,13.8823529 L7.26890756,13.8823529 L7.26890756,14.4638655 L5.23529412,14.4638655 L5.23529412,13.8789916 L5.89747899,13.8789916 L5.89747899,11.1294118 L5.26554622,11.1294118 L5.26554622,10.5781513 C5.49747899,10.5445378 5.8907563,10.5109244 6.1697479,10.5109244 Z M17.2386555,10.5109244 C17.6420168,10.5109244 17.7798319,10.6084034 17.7798319,10.897479 L17.7798319,13.8823529 L18.3378151,13.8823529 L18.3378151,14.4638655 L16.3042017,14.4638655 L16.3042017,13.8789916 L16.9663866,13.8789916 L16.9663866,11.1294118 L16.3344538,11.1294118 L16.3344538,10.5781513 C16.5663866,10.5445378 16.9596639,10.5109244 17.2386555,10.5109244 Z M9.91428571,11.0252101 C9.44705882,11.0252101 9.26218487,11.3815126 9.26218487,12.4739496 C9.26218487,13.5663866 9.44705882,13.8588235 9.91428571,13.8588235 C10.3848739,13.8588235 10.5663866,13.5630252 10.5663866,12.4739496 C10.5663866,11.3848739 10.3815126,11.0252101 9.91428571,11.0252101 Z M13.8134454,11.0252101 C13.3462185,11.0252101 13.1613445,11.3815126 13.1613445,12.4739496 C13.1613445,13.5663866 13.3462185,13.8588235 13.8134454,13.8588235 C14.2840336,13.8588235 14.4655462,13.5630252 14.4655462,12.4739496 C14.4655462,11.3848739 14.2806723,11.0252101 13.8134454,11.0252101 Z M6.2907563,4.02352941 C7.38655462,4.02352941 7.80336134,4.72605042 7.80336134,6.07731092 C7.80336134,7.42857143 7.38655462,8.12436975 6.2907563,8.12436975 C5.19495798,8.12436975 4.77815126,7.42521008 4.77815126,6.07731092 C4.77815126,4.72941176 5.19495798,4.02352941 6.2907563,4.02352941 Z M9.85378151,4.13781513 C10.2571429,4.13781513 10.394958,4.23529412 10.394958,4.52436975 L10.394958,7.5092437 L10.9529412,7.5092437 L10.9529412,8.0907563 L8.91932773,8.0907563 L8.91932773,7.50588235 L9.58151261,7.50588235 L9.58151261,4.75630252 L8.94957983,4.75630252 L8.94957983,4.20504202 C9.18151261,4.17142857 9.57478992,4.13781513 9.85378151,4.13781513 Z M6.2907563,4.62857143 C5.82352941,4.62857143 5.63865546,4.98487395 5.63865546,6.07731092 C5.63865546,7.1697479 5.82352941,7.46218487 6.2907563,7.46218487 C6.75798319,7.46218487 6.94285714,7.16638655 6.94285714,6.07731092 C6.94285714,4.98823529 6.75798319,4.62857143 6.2907563,4.62857143 Z M13.6218487,1.21008403 L13.6218487,3.95966387 C13.6218487,4.83361345 13.9109244,5.57647059 14.4554622,6.10756303 C15.0033613,6.64201681 15.7731092,6.92773109 16.6773109,6.92773109 L19.4739496,6.92773109 L13.6218487,1.21008403 Z" id="Documento-encriptado_1Light"></path>
        </g>
    </g>
</svg>

<svg width="24" height="24" viewBox="0 0 24 24" xmlns="http://www.w3.org/2000/svg"><path d="M13.464 0c.215 0 .427.087.578.239l6.427 6.279a.825.825 0 01.205.39c.027.06.04.127.04.195v15.075c0 .783-.669 1.446-1.462 1.446H4.462c-.78 0-1.462-.676-1.462-1.446V1.445C3 .69 3.7 0 4.462 0h9.002zm-.824.992H4.46c-.222 0-.48.245-.48.453v20.733c0 .225.241.454.48.454h14.79c.248 0 .48-.222.48-.454V7.92h-3.052c-1.166 0-2.171-.38-2.904-1.099-.74-.723-1.133-1.714-1.133-2.86V.992zm1.177 15.586c1.096 0 1.512.703 1.512 2.054s-.416 2.047-1.512 2.047-1.513-.7-1.513-2.047c0-1.348.417-2.054 1.513-2.054zm3.422.077c.403 0 .54.098.54.387v2.985h.559v.578h-2.034v-.581h.662v-2.75h-.632v-.551c.232-.034.626-.068.905-.068zm-7.325 0c.404 0 .541.098.541.387v2.985h.558v.578H8.98v-.581h.662v-2.75H9.01v-.551c.232-.034.625-.068.904-.068zm-3.647 0c.404 0 .541.098.541.387v2.985h.558v.578H5.333v-.581h.662v-2.75h-.632v-.551c.232-.034.625-.068.904-.068zm7.546.528c-.467 0-.652.356-.652 1.449 0 1.092.185 1.385.652 1.385.471 0 .653-.296.653-1.385 0-1.09-.185-1.449-.653-1.449zM9.918 10.42c1.095 0 1.512.703 1.512 2.054s-.417 2.047-1.512 2.047c-1.096 0-1.513-.7-1.513-2.047 0-1.348.417-2.054 1.513-2.054zm3.899 0c1.096 0 1.512.703 1.512 2.054s-.416 2.047-1.512 2.047-1.513-.7-1.513-2.047c0-1.348.417-2.054 1.513-2.054zm-7.647.09c.403 0 .54.098.54.387v2.985h.559v.582H5.235v-.585h.662v-2.75h-.631v-.55c.231-.034.625-.068.904-.068zm11.069 0c.403 0 .54.098.54.387v2.985h.559v.582h-2.034v-.585h.662v-2.75h-.632v-.55c.232-.034.626-.068.905-.068zm-7.325.515c-.467 0-.652.357-.652 1.449s.185 1.385.652 1.385c.47 0 .652-.296.652-1.385 0-1.09-.184-1.449-.652-1.449zm3.9 0c-.468 0-.653.357-.653 1.449s.185 1.385.652 1.385c.471 0 .653-.296.653-1.385 0-1.09-.185-1.449-.653-1.449zM6.29 4.024c1.096 0 1.512.702 1.512 2.053 0 1.352-.416 2.047-1.512 2.047s-1.513-.699-1.513-2.047c0-1.348.417-2.053 1.513-2.053zm3.563.114c.403 0 .541.097.541.386V7.51h.558v.582H8.919v-.585h.663v-2.75H8.95v-.551c.232-.034.625-.067.904-.067zm-3.563.49c-.467 0-.652.357-.652 1.45 0 1.092.185 1.384.652 1.384s.652-.296.652-1.385S6.758 4.63 6.29 4.63zm7.33-3.418v2.75c0 .874.29 1.616.834 2.148.548.534 1.318.82 2.222.82h2.797L13.622 1.21z" fill="#5CB615" fill-rule="nonzero"/></svg>
